src/icons/nginx.svg

<svg width="16" height="16" viewBox="0 0 16 16" fill="none" xmlns="http://www.w3.org/2000/svg">
<path d="M8 14C11.3137 14 14 11.3137 14 8C14 4.68629 11.3137 2 8 2C4.68629 2 2 4.68629 2 8C2 11.3137 4.68629 14 8 14Z" fill="#2ECC71"/>
<path d="M6.49706 9.94699C6.49706 10.267 6.23305 10.53 5.91405 10.53C5.75968 10.5292 5.61185 10.4675 5.50268 10.3584C5.39352 10.2492 5.33184 10.1014 5.33105 9.94699V5.94699C5.33105 5.63699 5.60505 5.37999 5.99305 5.37999C6.29705 5.37699 6.58805 5.50699 6.78805 5.73599L6.96406 5.94599L9.40005 8.85999V5.96199C9.40005 5.64199 9.66405 5.37999 9.98305 5.37999C10.3031 5.37999 10.5661 5.64299 10.5661 5.96199V9.96399C10.5661 10.274 10.2911 10.53 9.90406 10.53C9.75376 10.5318 9.60486 10.501 9.46762 10.4397C9.33037 10.3784 9.20804 10.2881 9.10906 10.175L6.49605 7.04899L6.49706 9.94699Z" fill="white"/>
</svg>

<svg xmlns="http://www.w3.org/2000/svg" width="16" height="16" fill="none"><path fill="#2ECC71" d="M2.892 10.874a.6.6 0 0 0 .222.22l4.533 2.617a.6.6 0 0 0 .602 0l4.534-2.617a.6.6 0 0 0 .3-.522V5.338a.6.6 0 0 0-.3-.522L8.248 2.2a.6.6 0 0 0-.602 0L3.114 4.816a.6.6 0 0 0-.301.522v5.234a.6.6 0 0 0 .08.302"/><path fill="#fff" d="M6.497 9.947c0 .32-.264.583-.583.583a.586.586 0 0 1-.583-.583V5.947c0-.31.274-.567.662-.567.304-.003.595.127.795.356l.176.21L9.4 8.86V5.962c0-.32.264-.582.583-.582.32 0 .583.263.583.582v4.002c0 .31-.275.566-.662.566a1.04 1.04 0 0 1-.795-.355L6.496 7.049z"/></svg>
